X:1
T:Ballerma, CM
T:François Hippolyte Barthélémon (1741-1808)
T:Ballerma, CM
T:Adapted by Robert Simpson, 1833
C:Fran&#231;ois Hippolyte Barth&#233;l&#233;mon (1741-1808)
Z:Adapted by Robert Simpson, 1833
%%score ( 1 2 ) ( 3 4 )
L:1/8
M:6/4
K:Ab
V:1 treble 
V:2 treble 
V:3 bass 
V:4 bass 
V:1
 [EA]2 | [Ec]4 [DB]2 [CA]4 [DF]2 | [CE]4 [DF]2 [EA]4 [DA]2 | [Ec]4 [EB]2 (c2 e2) [Ec]2 | %4
 [EB]6- [EB]4 [EA]2 | [Ec]4 [DB]2 [CA]4 [DF]2 | E4 [A,C]2 [B,E]4 [EB]2 | %7
 (c2 e2) [Ed]2 (B3 c) [DB]2 | [CA]6- [CA]4 |] %9
V:2
 x2 | x12 | x12 | x6 E4 x2 | x12 | x12 | x12 | E4 F4 x4 | x10 |] %9
V:3
 [A,C]2 | A,4 [E,G,]2 [F,A,]4 [D,A,]2 | [A,,A,]4 [D,A,]2 [C,A,]4 [D,F,]2 | %3
 [A,,A,]4 [E,G,]2 (z2 C2) [C,A,]2 | [E,G,]6- [E,G,]4 [F,A,]2 | A,4 [E,G,]2 [F,A,]4 [D,A,]2 | %6
 [C,A,]4 [F,A,]2 [E,G,]4 [E,G,]2 | (z2 C2) [C,A,]2 [D,A,]4 [E,G,]2 | [A,,A,]6- [A,,A,]4 |] %9
V:4
 x2 | A,4 x8 | x12 | x6 A,4 x2 | x12 | A,4 x8 | x12 | A,4 x8 | x10 |] %9

